symbols/web/account_tree/materialsymbolsoutlined/account_tree_wght100gradN25fill1_20px.svg

<svg xmlns="http://www.w3.org/2000/svg" height="20" width="20"><path d="M12.979 16.875v-2.479H9.688V6.188H7v2.458H2.292V3.104H7v2.458h5.979V3.104h4.729v5.542h-4.729V6.188h-2.687v7.583h2.687v-2.459h4.729v5.563Z"/></svg>

<svg xmlns="http://www.w3.org/2000/svg" height="20" width="20"><path d="M12.979 16.875V14.396H9.688V6.188H7V8.646H2.292V3.104H7V5.562H12.979V3.104H17.708V8.646H12.979V6.188H10.292V13.771H12.979V11.312H17.708V16.875Z"/></svg>
